content/images/project/sw-rust.svg

<svg width="38" height="41" viewBox="0 0 38 41" fill="none" xmlns="http://www.w3.org/2000/svg">
<path d="M1 4C1 1.79086 2.79086 0 5 0H33C35.2091 0 37 1.79086 37 4V32C37 34.2091 35.2091 36 33 36H5C2.79086 36 1 34.2091 1 32V4Z" fill="#0B2B40"/>
<g filter="url(#filter0_d_1024_3704)">
<path d="M32.8867 17.6517L31.7047 16.9197C31.6948 16.8047 31.6837 16.6899 31.6714 16.5751L32.6871 15.6281C32.7372 15.5805 32.7745 15.521 32.7954 15.4551C32.8163 15.3893 32.8202 15.3192 32.8066 15.2514C32.7931 15.1836 32.7626 15.1204 32.718 15.0676C32.6734 15.0148 32.6162 14.9742 32.5517 14.9495L31.2533 14.4635C31.2212 14.3512 31.1871 14.2395 31.1511 14.1284L31.9613 13.0031C32.0019 12.9469 32.0274 12.8812 32.0355 12.8123C32.0436 12.7434 32.0338 12.6736 32.0073 12.6095C31.9807 12.5454 31.9382 12.4892 31.8838 12.4462C31.8294 12.4032 31.7648 12.3748 31.6964 12.3638L30.3279 12.1416C30.2745 12.0382 30.2194 11.9356 30.1628 11.8338L30.7377 10.5707C30.7971 10.4424 30.784 10.2926 30.7056 10.1762C30.6272 10.0597 30.4942 9.9908 30.3528 9.99556L28.963 10.0443C28.8917 9.95396 28.8184 9.86522 28.7432 9.7781L29.0628 8.42464C29.0785 8.35714 29.0768 8.28675 29.0578 8.22011C29.0388 8.15346 29.0031 8.09277 28.9541 8.04376C28.9051 7.99476 28.8444 7.95906 28.7778 7.94004C28.7112 7.92102 28.6408 7.9193 28.5733 7.93506L27.2203 8.25471C27.132 8.1805 27.0429 8.10721 26.953 8.03488L27.0017 6.64457C27.005 6.57501 26.9903 6.50578 26.959 6.44358C26.9277 6.38139 26.8808 6.32835 26.823 6.28961C26.7651 6.25087 26.6982 6.22775 26.6288 6.22248C26.5594 6.21722 26.4898 6.22999 26.4268 6.25957L25.164 6.83589C25.0619 6.78004 24.9597 6.72419 24.8564 6.67072L24.633 5.30062C24.6214 5.23246 24.5928 5.16836 24.5497 5.11431C24.5066 5.06026 24.4505 5.01802 24.3867 4.99155C24.3228 4.96508 24.2533 4.95523 24.1846 4.96294C24.1159 4.97065 24.0503 4.99566 23.9939 5.03563L22.8678 5.84604C22.7567 5.81041 22.6451 5.77674 22.5328 5.74504L22.0469 4.44623C22.0223 4.38167 21.9817 4.3244 21.9289 4.2798C21.8762 4.23519 21.8129 4.2047 21.7452 4.19117C21.6774 4.17764 21.6074 4.18151 21.5415 4.20243C21.4757 4.22334 21.4162 4.26062 21.3687 4.31077L20.4219 5.32795C20.3072 5.31503 20.1924 5.30394 20.0774 5.29467L19.3456 4.11232C19.3092 4.05336 19.2584 4.00468 19.1979 3.97092C19.1374 3.93716 19.0692 3.91943 19 3.91943C18.9307 3.91943 18.8625 3.93716 18.802 3.97092C18.7415 4.00468 18.6907 4.05336 18.6543 4.11232L17.9225 5.29467C17.8073 5.30418 17.6921 5.31606 17.578 5.32795L16.6301 4.31077C16.5828 4.26 16.5234 4.22216 16.4574 4.20086C16.3914 4.17956 16.3211 4.17551 16.2531 4.18909C16.1851 4.20267 16.1217 4.23343 16.069 4.27844C16.0162 4.32345 15.9759 4.38121 15.9518 4.44623L15.4659 5.74504C15.3531 5.77712 15.2426 5.81158 15.1309 5.84604L14.006 5.03563C13.9496 4.99566 13.884 4.97065 13.8153 4.96294C13.7466 4.95523 13.6771 4.96508 13.6133 4.99155C13.5494 5.01802 13.4933 5.06026 13.4502 5.11431C13.4071 5.16836 13.3785 5.23246 13.3669 5.30062L13.1435 6.67072C13.0401 6.72414 12.9375 6.7792 12.8359 6.83589L11.5731 6.25957C11.51 6.23071 11.4406 6.21848 11.3715 6.22406C11.3023 6.22964 11.2358 6.25283 11.1781 6.29143C11.1205 6.33003 11.0737 6.38275 11.0422 6.44456C11.0107 6.50638 10.9955 6.57524 10.9982 6.64457L11.0469 8.03488C10.9566 8.10617 10.8675 8.17985 10.7796 8.25471L9.42657 7.93506C9.3591 7.9193 9.28873 7.92102 9.2221 7.94004C9.15548 7.95906 9.09481 7.99476 9.04582 8.04376C8.99683 8.09277 8.96114 8.15346 8.94212 8.22011C8.92311 8.28675 8.92139 8.35714 8.93715 8.42464L9.25551 9.7781C9.18186 9.86603 9.10821 9.95516 9.03693 10.0443L7.64707 9.99556C7.57776 9.99292 7.50893 10.0081 7.44713 10.0396C7.38533 10.0711 7.33263 10.1179 7.29404 10.1756C7.25546 10.2332 7.23227 10.2998 7.2267 10.369C7.22112 10.4382 7.23334 10.5076 7.26219 10.5707L7.83833 11.8338C7.78163 11.9355 7.72658 12.0381 7.67321 12.1416L6.30473 12.3638C6.2366 12.3754 6.17252 12.4041 6.11848 12.4472C6.06445 12.4903 6.02223 12.5464 5.99576 12.6103C5.9693 12.6741 5.95946 12.7437 5.96717 12.8124C5.97487 12.8811 5.99987 12.9467 6.03983 13.0031L6.84998 14.1284C6.81435 14.2401 6.78108 14.3506 6.74782 14.4635L5.44943 14.9495C5.38489 14.9742 5.32765 15.0148 5.28305 15.0676C5.23846 15.1204 5.20798 15.1836 5.19445 15.2514C5.18092 15.3192 5.1848 15.3893 5.20571 15.4551C5.22661 15.521 5.26388 15.5805 5.31401 15.6281L6.32968 16.5751C6.31677 16.6898 6.30568 16.8047 6.29642 16.9197L5.11444 17.6517C5.05493 17.6877 5.00571 17.7384 4.97155 17.799C4.93738 17.8596 4.91943 17.928 4.91943 17.9975C4.91943 18.0671 4.93738 18.1354 4.97155 18.196C5.00571 18.2566 5.05493 18.3073 5.11444 18.3433L6.29642 19.0753C6.30592 19.1906 6.3178 19.3058 6.32968 19.4199L5.31401 20.3682C5.26326 20.4154 5.22543 20.4749 5.20414 20.5409C5.18285 20.6069 5.1788 20.6772 5.19237 20.7452C5.20595 20.8132 5.2367 20.8766 5.28169 20.9294C5.32669 20.9822 5.38443 21.0225 5.44943 21.0467L6.74782 21.5327C6.7799 21.6456 6.81435 21.7573 6.84998 21.8678L6.03983 22.9931C5.99885 23.0493 5.97303 23.1151 5.96485 23.1842C5.95668 23.2533 5.96643 23.3234 5.99317 23.3876C6.0199 23.4518 6.06272 23.5081 6.1175 23.551C6.17227 23.5938 6.23716 23.6219 6.30592 23.6324L7.6744 23.8546C7.72785 23.958 7.7825 24.0602 7.83952 24.1624L7.26338 25.4255C7.23453 25.4886 7.22231 25.5581 7.22788 25.6272C7.23346 25.6964 7.25665 25.763 7.29523 25.8206C7.33382 25.8783 7.38652 25.9251 7.44832 25.9566C7.51011 25.9881 7.57895 26.0033 7.64826 26.0007L9.03693 25.9519C9.10939 26.0423 9.18186 26.1314 9.25669 26.2193L8.93833 27.574C8.92248 27.6414 8.92413 27.7118 8.94313 27.7784C8.96213 27.8451 8.99785 27.9057 9.04689 27.9547C9.09594 28.0036 9.15667 28.0392 9.22333 28.058C9.28999 28.0769 9.36036 28.0784 9.42775 28.0623L10.7808 27.7439C10.8687 27.8187 10.9578 27.8912 11.0481 27.9625L10.9994 29.3528C10.9963 29.4223 11.0111 29.4914 11.0425 29.5534C11.074 29.6154 11.1208 29.6683 11.1787 29.7069C11.2365 29.7455 11.3033 29.7685 11.3726 29.7737C11.4419 29.7789 11.5114 29.7662 11.5743 29.7367L12.8371 29.1615C12.9392 29.2186 13.0414 29.2732 13.1447 29.3267L13.3681 30.6956C13.3795 30.7639 13.408 30.8281 13.4511 30.8823C13.4941 30.9365 13.5502 30.9789 13.614 31.0055C13.6779 31.0321 13.7475 31.042 13.8162 31.0344C13.885 31.0267 13.9507 31.0018 14.0072 30.9618L15.1321 30.1514C15.2438 30.187 15.3542 30.2215 15.4671 30.2536L15.953 31.5524C15.9768 31.6176 16.017 31.6756 16.0698 31.7209C16.1225 31.7661 16.186 31.797 16.2541 31.8106C16.3222 31.8242 16.3927 31.82 16.4587 31.7985C16.5248 31.777 16.5842 31.7389 16.6313 31.6878L17.5792 30.6718C17.6932 30.6849 17.8085 30.6956 17.9237 30.7063L18.6555 31.8886C18.6921 31.9473 18.743 31.9957 18.8035 32.0293C18.864 32.0629 18.932 32.0805 19.0011 32.0805C19.0703 32.0805 19.1383 32.0629 19.1988 32.0293C19.2593 31.9957 19.3102 31.9473 19.3468 31.8886L20.0786 30.7063C20.1938 30.6956 20.309 30.6849 20.4231 30.6718L21.3698 31.6878C21.4174 31.738 21.4768 31.7753 21.5427 31.7962C21.6085 31.8171 21.6786 31.821 21.7464 31.8074C21.8141 31.7939 21.8773 31.7634 21.9301 31.7188C21.9829 31.6742 22.0235 31.6169 22.0481 31.5524L22.534 30.2536C22.6468 30.2215 22.7585 30.187 22.869 30.1514L23.9939 30.9618C24.0501 31.0028 24.1159 31.0286 24.185 31.0368C24.2541 31.045 24.3241 31.0352 24.3883 31.0085C24.4525 30.9817 24.5088 30.9389 24.5516 30.8841C24.5945 30.8293 24.6225 30.7644 24.633 30.6956L24.8564 29.3267C24.9597 29.2732 25.0619 29.2174 25.164 29.1615L26.4268 29.7367C26.4898 29.7651 26.559 29.7771 26.6279 29.7714C26.6968 29.7657 26.7631 29.7426 26.8206 29.7042C26.8781 29.6658 26.9249 29.6134 26.9566 29.552C26.9883 29.4905 27.0038 29.422 27.0017 29.3528L26.953 27.9625C27.0433 27.8912 27.1324 27.8187 27.2191 27.7439L28.5722 28.0623C28.6395 28.078 28.7097 28.0763 28.7762 28.0573C28.8427 28.0384 28.9033 28.0028 28.9523 27.9539C29.0012 27.9051 29.0369 27.8446 29.0561 27.7781C29.0752 27.7116 29.0771 27.6414 29.0616 27.574L28.7432 26.2193C28.8169 26.1314 28.8905 26.0423 28.9618 25.9519L30.3516 26.0007C30.4212 26.004 30.4904 25.9893 30.5526 25.9579C30.6147 25.9266 30.6678 25.8797 30.7065 25.8218C30.7452 25.764 30.7683 25.6971 30.7736 25.6276C30.7789 25.5582 30.7661 25.4886 30.7365 25.4255L30.1616 24.1624C30.2174 24.0602 30.2732 23.958 30.3267 23.8546L31.6952 23.6324C31.7633 23.6208 31.8274 23.5921 31.8814 23.549C31.9355 23.5059 31.9777 23.4498 32.0041 23.3859C32.0306 23.3221 32.0404 23.2525 32.0327 23.1838C32.025 23.1151 32 23.0495 31.9601 22.9931L31.1499 21.8678L31.2521 21.5327L32.5505 21.0467C32.6155 21.0225 32.6732 20.9822 32.7182 20.9294C32.7632 20.8766 32.794 20.8132 32.8075 20.7452C32.8211 20.6772 32.8171 20.6069 32.7958 20.5409C32.7745 20.4749 32.7366 20.4154 32.6859 20.3682L31.6702 19.4199C31.6821 19.3058 31.694 19.1906 31.7035 19.0753L32.8855 18.3433C32.945 18.3073 32.9942 18.2566 33.0284 18.196C33.0625 18.1354 33.0805 18.0671 33.0805 17.9975C33.0805 17.928 33.0625 17.8596 33.0284 17.799C32.9942 17.7384 32.945 17.6877 32.8855 17.6517H32.8867ZM24.9763 27.4587C24.7591 27.4122 24.5692 27.2813 24.4485 27.0948C24.3277 26.9083 24.286 26.6814 24.3325 26.4641C24.379 26.2468 24.5098 26.0569 24.6963 25.9361C24.8828 25.8153 25.1095 25.7736 25.3268 25.82C25.4343 25.8431 25.5363 25.8872 25.6268 25.9497C25.7174 26.0122 25.7947 26.092 25.8544 26.1844C25.9142 26.2768 25.9551 26.3801 25.975 26.4883C25.9948 26.5965 25.9931 26.7076 25.97 26.8152C25.9469 26.9228 25.9029 27.0248 25.8404 27.1154C25.7779 27.206 25.6982 27.2833 25.6058 27.3431C25.5134 27.4028 25.4102 27.4438 25.302 27.4636C25.1938 27.4835 25.0827 27.4818 24.9752 27.4587H24.9763ZM24.5748 24.7423C24.4768 24.7212 24.3757 24.7196 24.2771 24.7377C24.1785 24.7558 24.0845 24.7932 24.0004 24.8478C23.9163 24.9023 23.8438 24.9729 23.787 25.0555C23.7303 25.1382 23.6904 25.2312 23.6696 25.3293L23.2503 27.2876C21.9555 27.8758 20.5181 28.2026 19.0035 28.2026C17.5058 28.2048 16.0258 27.8786 14.6676 27.2472L14.2483 25.2889C14.2276 25.1908 14.1877 25.0978 14.1309 25.0153C14.0741 24.9327 14.0016 24.8621 13.9175 24.8077C13.8333 24.7533 13.7393 24.716 13.6407 24.698C13.5422 24.6801 13.441 24.6818 13.3431 24.703L11.6147 25.0738C11.2935 24.743 10.9951 24.3908 10.7214 24.0198H19.1318C19.2268 24.0198 19.291 24.0031 19.291 23.9164V20.9397C19.291 20.853 19.228 20.8363 19.1318 20.8363H16.6716V18.9493H19.3326C19.5749 18.9493 20.631 19.0183 20.9683 20.3682C21.074 20.7829 21.3057 22.134 21.4649 22.5665C21.6229 23.0513 22.2667 24.0198 22.9533 24.0198H27.1443C27.1953 24.0191 27.2462 24.0139 27.2963 24.0043C27.0057 24.3992 26.6874 24.7729 26.3436 25.1225L24.5748 24.7423ZM12.9416 27.4183C12.834 27.4414 12.723 27.4431 12.6148 27.4232C12.5066 27.4034 12.4033 27.3624 12.3109 27.3027C12.2186 27.2429 12.1388 27.1656 12.0763 27.075C12.0139 26.9844 11.9698 26.8824 11.9467 26.7748C11.9236 26.6672 11.922 26.5561 11.9418 26.4479C11.9616 26.3397 12.0026 26.2364 12.0623 26.144C12.122 26.0516 12.1994 25.9718 12.2899 25.9093C12.3805 25.8468 12.4824 25.8027 12.59 25.7796C12.8072 25.733 13.0341 25.7746 13.2206 25.8953C13.4072 26.0159 13.5382 26.2058 13.5849 26.4231C13.6315 26.6404 13.5899 26.8673 13.4693 27.054C13.3486 27.2406 13.1588 27.3717 12.9416 27.4183ZM9.75087 14.4754C9.79961 14.5765 9.82755 14.6864 9.83303 14.7985C9.83851 14.9106 9.82142 15.0226 9.78277 15.128C9.74411 15.2334 9.68469 15.3299 9.60802 15.4118C9.53136 15.4938 9.43901 15.5595 9.33647 15.605C9.23393 15.6506 9.12328 15.6751 9.0111 15.677C8.89891 15.679 8.78748 15.6583 8.68342 15.6164C8.57936 15.5744 8.48479 15.5119 8.40532 15.4327C8.32586 15.3535 8.26312 15.2591 8.22083 15.1551C8.13884 14.9536 8.13848 14.728 8.21982 14.5261C8.30116 14.3243 8.45782 14.1621 8.65664 14.0737C8.85547 13.9854 9.08084 13.9779 9.28507 14.0529C9.4893 14.1279 9.65635 14.2794 9.75087 14.4754ZM8.77084 16.8009L10.5717 16C10.6633 15.9593 10.746 15.901 10.8151 15.8283C10.8841 15.7556 10.9382 15.67 10.9742 15.5765C11.0101 15.4829 11.0273 15.3831 11.0247 15.2829C11.0221 15.1826 10.9998 15.0839 10.959 14.9923L10.5883 14.1534H12.0471V20.7294H9.10464C8.74178 19.4532 8.62883 18.1188 8.77203 16.7997L8.77084 16.8009ZM16.6728 16.1628V14.2247H20.1463C20.3257 14.2247 21.4126 14.4326 21.4126 15.2454C21.4126 15.9204 20.5787 16.1628 19.8933 16.1628H16.6728ZM29.2956 17.9072C29.2956 18.1639 29.2861 18.4194 29.2671 18.6713H28.211C28.1053 18.6713 28.0625 18.7402 28.0625 18.8448V19.3296C28.0625 20.4715 27.4187 20.7199 26.8544 20.7829C26.3175 20.8435 25.7223 20.5583 25.6487 20.2291C25.3315 18.4467 24.8041 18.0652 23.9702 17.4081C25.0049 16.751 26.0811 15.7813 26.0811 14.4837C26.0811 13.0827 25.1201 12.1998 24.4655 11.7661C23.5473 11.1601 22.5304 11.0389 22.256 11.0389H11.3355C12.8448 9.35076 14.8687 8.20797 17.0934 7.78771L18.3811 9.1388C18.45 9.21142 18.5327 9.26969 18.6242 9.31026C18.7158 9.35084 18.8145 9.37292 18.9146 9.37524C19.0147 9.37756 19.1143 9.36007 19.2076 9.32378C19.301 9.28748 19.3862 9.2331 19.4585 9.16375L20.8982 7.78533C22.3663 8.06075 23.7568 8.65235 24.9734 9.51908C26.19 10.3858 27.2036 11.5069 27.9437 12.8047L26.9578 15.0327C26.8761 15.2178 26.8709 15.4277 26.9435 15.6165C27.0161 15.8053 27.1604 15.9577 27.345 16.0404L29.2433 16.8841C29.2766 17.2216 29.2932 17.5614 29.2932 17.9072H29.2956ZM18.3822 6.63982C18.4617 6.56398 18.5554 6.50454 18.6578 6.4649C18.7602 6.42526 18.8695 6.40619 18.9793 6.40879C19.0891 6.41138 19.1973 6.43558 19.2978 6.48002C19.3983 6.52445 19.489 6.58824 19.5648 6.66775C19.6406 6.74725 19.7 6.84092 19.7397 6.9434C19.7793 7.04587 19.7984 7.15515 19.7958 7.265C19.7932 7.37485 19.769 7.48311 19.7246 7.5836C19.6801 7.68409 19.6164 7.77485 19.5369 7.85069C19.3742 7.9911 19.1638 8.06358 18.9492 8.05315C18.7345 8.04271 18.5321 7.95015 18.3838 7.79462C18.2355 7.63909 18.1526 7.43248 18.1523 7.21754C18.152 7.00259 18.2344 6.79576 18.3822 6.63982ZM28.1671 14.5158C28.2114 14.4153 28.2751 14.3246 28.3545 14.2488C28.4339 14.173 28.5275 14.1136 28.63 14.0741C28.7324 14.0346 28.8416 14.0157 28.9513 14.0185C29.0611 14.0213 29.1692 14.0457 29.2695 14.0904C29.4211 14.1573 29.5494 14.2677 29.6383 14.4077C29.7271 14.5476 29.7725 14.7107 29.7686 14.8765C29.7647 15.0422 29.7118 15.203 29.6165 15.3386C29.5212 15.4742 29.3878 15.5785 29.2332 15.6383C29.0787 15.698 28.9098 15.7106 28.7481 15.6743C28.5864 15.638 28.4391 15.5546 28.3249 15.4346C28.2106 15.3145 28.1345 15.1632 28.1062 14.9999C28.0779 14.8366 28.0987 14.6685 28.1659 14.517L28.1671 14.5158Z" fill="url(#paint0_linear_1024_3704)" shape-rendering="crispEdges"/>
</g>
<path opacity="0.9" d="M18.1406 7.44887C18.5537 7.35567 18.9813 7.29723 19.4099 7.27425C23.7091 7.04382 27.3785 10.4019 27.6024 14.7716C27.679 16.2671 27.3253 17.7509 26.6127 19.0408C29.6472 17.9454 31.7018 14.9532 31.5268 11.5378C31.3137 7.37998 27.8151 4.17826 23.7244 4.39752C21.4877 4.5174 19.4436 5.66626 18.1406 7.44887Z" fill="white"/>
<defs>
<filter id="filter0_d_1024_3704" x="0.919434" y="3.91943" width="36.1611" height="36.161" filterUnits="userSpaceOnUse" color-interpolation-filters="sRGB">
<feFlood flood-opacity="0" result="BackgroundImageFix"/>
<feColorMatrix in="SourceAlpha" type="matrix" values="0 0 0 0 0 0 0 0 0 0 0 0 0 0 0 0 0 0 127 0" result="hardAlpha"/>
<feOffset dy="4"/>
<feGaussianBlur stdDeviation="2"/>
<feComposite in2="hardAlpha" operator="out"/>
<feColorMatrix type="matrix" values="0 0 0 0 0 0 0 0 0 0 0 0 0 0 0 0 0 0 0.25 0"/>
<feBlend mode="normal" in2="BackgroundImageFix" result="effect1_dropShadow_1024_3704"/>
<feBlend mode="normal" in="SourceGraphic" in2="effect1_dropShadow_1024_3704" result="shape"/>
</filter>
<linearGradient id="paint0_linear_1024_3704" x1="4.91943" y1="32.0804" x2="33.0806" y2="3.91943" gradientUnits="userSpaceOnUse">
<stop stop-color="white" stop-opacity="0.6"/>
<stop offset="1" stop-color="white" stop-opacity="0"/>
</linearGradient>
</defs>
</svg>

<svg xmlns="http://www.w3.org/2000/svg" width="38" height="41" fill="none" viewBox="0 0 38 41"><path fill="#0B2B40" d="M1 4a4 4 0 0 1 4-4h28a4 4 0 0 1 4 4v28a4 4 0 0 1-4 4H5a4 4 0 0 1-4-4V4Z"/><g filter="url(#a)"><path fill="url(#b)" d="m32.887 17.652-1.182-.732c-.01-.115-.021-.23-.034-.345l1.016-.947a.41.41 0 0 0-.135-.678l-1.299-.486a10.027 10.027 0 0 0-.102-.336l.81-1.125a.407.407 0 0 0-.265-.64l-1.368-.221a11.372 11.372 0 0 0-.165-.308l.575-1.263a.409.409 0 0 0-.385-.575l-1.39.048a7.856 7.856 0 0 0-.22-.266l.32-1.353a.408.408 0 0 0-.49-.49l-1.353.32a16.175 16.175 0 0 0-.267-.22l.049-1.39a.404.404 0 0 0-.575-.385l-1.263.576a15.25 15.25 0 0 0-.308-.165l-.223-1.37a.409.409 0 0 0-.64-.265l-1.125.81a9.932 9.932 0 0 0-.335-.101l-.486-1.299a.408.408 0 0 0-.678-.135l-.947 1.017c-.115-.013-.23-.024-.345-.033l-.731-1.183a.406.406 0 0 0-.692 0l-.732 1.183c-.115.01-.23.021-.344.033l-.948-1.017a.407.407 0 0 0-.678.135l-.486 1.299c-.113.032-.223.067-.335.101l-1.125-.81a.409.409 0 0 0-.64.265l-.223 1.37a9.059 9.059 0 0 0-.307.165l-1.263-.576a.406.406 0 0 0-.575.385l.049 1.39c-.09.071-.18.145-.267.22l-1.353-.32a.407.407 0 0 0-.49.49l.319 1.353c-.074.088-.148.177-.22.266l-1.389-.048a.406.406 0 0 0-.385.575l.576 1.263a12.8 12.8 0 0 0-.165.308l-1.368.222a.409.409 0 0 0-.265.64l.81 1.124c-.036.112-.069.223-.102.335l-1.299.487a.41.41 0 0 0-.135.678l1.016.947c-.013.115-.024.23-.034.345l-1.182.732a.404.404 0 0 0 0 .691l1.182.732c.01.116.022.23.034.345l-1.016.948a.406.406 0 0 0 .135.679l1.299.486c.032.113.066.224.102.335l-.81 1.125a.405.405 0 0 0 .266.64l1.368.222c.054.103.108.205.166.307l-.577 1.264a.407.407 0 0 0 .385.575l1.389-.05c.072.091.145.18.22.268l-.319 1.355a.406.406 0 0 0 .49.488l1.353-.318a9.4 9.4 0 0 0 .267.218L11 29.352a.404.404 0 0 0 .575.385l1.263-.575c.102.057.204.111.308.165l.223 1.369a.408.408 0 0 0 .64.266l1.124-.81c.112.035.222.07.335.102l.486 1.298a.405.405 0 0 0 .678.136l.948-1.016c.114.013.23.024.345.034l.732 1.183a.408.408 0 0 0 .69 0l.733-1.183c.115-.01.23-.021.344-.034l.947 1.016a.408.408 0 0 0 .678-.136l.486-1.298c.113-.033.225-.067.335-.103l1.125.81a.405.405 0 0 0 .639-.265l.223-1.37c.104-.053.206-.109.308-.165l1.263.576a.408.408 0 0 0 .575-.384l-.049-1.39c.09-.072.18-.144.266-.22l1.353.32a.406.406 0 0 0 .49-.489l-.319-1.355c.074-.088.148-.177.219-.267l1.39.049a.403.403 0 0 0 .384-.576l-.574-1.263c.055-.102.111-.204.165-.307l1.368-.223a.409.409 0 0 0 .265-.639l-.81-1.125.102-.335 1.299-.486a.407.407 0 0 0 .135-.679l-1.016-.948c.012-.114.024-.23.033-.345l1.183-.732a.404.404 0 0 0 0-.691Zm-7.91 9.807a.838.838 0 1 1 .325.005.836.836 0 0 1-.327-.005h.001Zm-.402-2.717a.761.761 0 0 0-.905.587l-.42 1.959a10.24 10.24 0 0 1-4.247.915 10.25 10.25 0 0 1-4.335-.956l-.42-1.958a.759.759 0 0 0-.905-.586l-1.728.37c-.322-.33-.62-.682-.894-1.053h8.41c.096 0 .16-.017.16-.104V20.94c0-.087-.063-.104-.16-.104h-2.46V18.95h2.662c.242 0 1.298.07 1.635 1.42.106.414.338 1.765.497 2.198.158.484.802 1.453 1.488 1.453h4.191a.872.872 0 0 0 .152-.016c-.29.395-.609.769-.952 1.118l-1.77-.38Zm-11.633 2.676a.836.836 0 0 1-1-.97.838.838 0 1 1 1 .97ZM9.75 14.475a.838.838 0 1 1-1.51.728.838.838 0 0 1 1.51-.728Zm-.98 2.326 1.8-.801a.763.763 0 0 0 .388-1.008l-.37-.839h1.458v6.576H9.105a10.303 10.303 0 0 1-.333-3.93l-.001.002Zm7.902-.638v-1.938h3.473c.18 0 1.267.208 1.267 1.02 0 .675-.834.918-1.52.918h-3.22Zm12.623 1.744c0 .257-.01.512-.029.764H28.21c-.106 0-.148.07-.148.174v.485c0 1.142-.644 1.39-1.209 1.453-.537.06-1.132-.225-1.205-.554-.318-1.782-.845-2.164-1.679-2.82 1.035-.658 2.111-1.628 2.111-2.925 0-1.401-.96-2.284-1.616-2.718-.918-.606-1.935-.727-2.209-.727h-10.92a10.284 10.284 0 0 1 5.757-3.251l1.288 1.35a.76.76 0 0 0 1.078.026l1.44-1.379a10.295 10.295 0 0 1 7.045 5.02l-.986 2.228a.765.765 0 0 0 .387 1.007l1.898.844c.034.338.05.677.05 1.023h.003ZM18.382 6.64a.837.837 0 1 1 1.155 1.21.837.837 0 0 1-1.155-1.21Zm9.785 7.876a.834.834 0 0 1 1.471-.108.838.838 0 1 1-1.472.109l.001-.001Z" shape-rendering="crispEdges"/></g><path fill="#fff" d="M18.14 7.449a7.687 7.687 0 0 1 1.27-.175c4.3-.23 7.968 3.128 8.192 7.498a8.005 8.005 0 0 1-.99 4.269c3.035-1.096 5.09-4.088 4.915-7.503-.213-4.158-3.712-7.36-7.803-7.14-2.236.12-4.28 1.268-5.583 3.05Z" opacity=".9"/><defs><linearGradient id="b" x1="4.919" x2="33.081" y1="32.08" y2="3.919" gradientUnits="userSpaceOnUse"><stop stop-color="#fff" stop-opacity=".6"/><stop offset="1" stop-color="#fff" stop-opacity="0"/></linearGradient><filter id="a" width="36.161" height="36.161" x=".919" y="3.919" color-interpolation-filters="sRGB" filterUnits="userSpaceOnUse"><feFlood flood-opacity="0" result="BackgroundImageFix"/><feColorMatrix in="SourceAlpha" result="hardAlpha" values="0 0 0 0 0 0 0 0 0 0 0 0 0 0 0 0 0 0 127 0"/><feOffset dy="4"/><feGaussianBlur stdDeviation="2"/><feComposite in2="hardAlpha" operator="out"/><feColorMatrix values="0 0 0 0 0 0 0 0 0 0 0 0 0 0 0 0 0 0 0.25 0"/><feBlend in2="BackgroundImageFix" result="effect1_dropShadow_1024_3704"/><feBlend in="SourceGraphic" in2="effect1_dropShadow_1024_3704" result="shape"/></filter></defs></svg>
